X:888
L:1/8
M:2/2
K:D
 [AA]3 c B2 cB | Ac B2 [A,E]D E2 | [AA]2 cA B2 c2 | ED E2 D4 | [AA]3 c B2 cB | Ac B2 [A,E]D E2 | 
 DEFD G2 FD |1 [EA]D [EA]2 D4 :|2[M:3/2] [EA]D [EA]2 D6 || [DA]2 |:[M:2/2] defg a2 aa | gfed edcA | 
 defg a2 gg | fded ([ce-] [Ae]2) A | defg a2 aa |1 !slide!g2 fd edcA | d2 d2 BdAG | FDEF D2 D2 :|2 
 g2 !slide!b2 e2 cA | d2 d2 BdAG | FDEA D2 |: fg | a2 (3bag a2 (3bag | a2 a2 e[de][ce][Ae] | 
 a2 (3bag a2 a2 | ABcA d2 fg | a2 (3bag a2 a2 | c'2 c'2 e2 cA | d2 ef g2 fd | ecec d2 :|

